; G-Code generated by Simplify3D(R) Version 3.0.2
; Jun 9, 2016 at 10:04:06 AM
; Settings Summary
;   processName,Process1
;   applyToModels,phone casev10,phone casev10(2)
;   profileName,MakerGear M2 (24V V3b hotend)(2) (modified)
;   profileVersion,2016-02-11 11:33:28
;   baseProfile,
;   printMaterial,PLA
;   printQuality,Fast
;   printExtruders,
;   extruderName,Primary Extruder
;   extruderToolheadNumber,0
;   extruderDiameter,0.35
;   extruderAutoWidth,1
;   extruderWidth,0.42
;   extrusionMultiplier,0.9
;   extruderUseRetract,1
;   extruderRetractionDistance,1
;   extruderExtraRestartDistance,0
;   extruderRetractionZLift,0
;   extruderRetractionSpeed,2400
;   extruderUseCoasting,0
;   extruderCoastingDistance,0.2
;   extruderUseWipe,0
;   extruderWipeDistance,5
;   primaryExtruder,0
;   layerHeight,0.3
;   topSolidLayers,3
;   bottomSolidLayers,3
;   perimeterOutlines,3
;   printPerimetersInsideOut,1
;   startPointOption,2
;   startPointOriginX,0
;   startPointOriginY,0
;   startPointOriginZ,300
;   sequentialIslands,0
;   spiralVaseMode,0
;   firstLayerHeightPercentage,90
;   firstLayerWidthPercentage,100
;   firstLayerUnderspeed,0.5
;   useRaft,0
;   raftExtruder,0
;   raftLayers,3
;   raftOffset,3
;   raftSeparationDistance,0.14
;   raftInfill,85
;   disableRaftBaseLayers,0
;   useSkirt,0
;   skirtExtruder,0
;   skirtLayers,1
;   skirtOutlines,2
;   skirtOffset,4
;   usePrimePillar,0
;   primePillarExtruder,999
;   primePillarWidth,12
;   primePillarLocation,7
;   primePillarSpeedMultiplier,1
;   useOozeShield,0
;   oozeShieldExtruder,999
;   oozeShieldOffset,2
;   oozeShieldOutlines,1
;   oozeShieldSidewallShape,1
;   oozeShieldSidewallAngle,30
;   oozeShieldSpeedMultiplier,1
;   infillExtruder,0
;   internalInfillPattern,Fast Honeycomb
;   externalInfillPattern,Rectilinear
;   infillPercentage,30
;   outlineOverlapPercentage,15
;   infillExtrusionWidthPercentage,100
;   minInfillLength,5
;   infillLayerInterval,1
;   infillAngles,0
;   overlapInfillAngles,0
;   generateSupport,0
;   supportExtruder,0
;   supportInfillPercentage,25
;   supportExtraInflation,0
;   denseSupportLayers,0
;   denseSupportInfillPercentage,70
;   supportLayerInterval,1
;   supportHorizontalPartOffset,0.3
;   supportUpperSeparationLayers,1
;   supportLowerSeparationLayers,1
;   supportType,0
;   supportGridSpacing,4
;   maxOverhangAngle,45
;   supportAngles,0
;   temperatureName,Primary Extruder,Heated Bed
;   temperatureNumber,0,2
;   temperatureSetpointCount,1,1
;   temperatureSetpointLayers,1,1
;   temperatureSetpointTemperatures,215,85
;   temperatureStabilizeAtStartup,1,1
;   temperatureHeatedBed,0,1
;   temperatureRelayBetweenLayers,0,0
;   temperatureRelayBetweenLoops,0,0
;   fanLayers,1,2
;   fanSpeeds,0,100
;   blipFanToFullPower,1
;   adjustSpeedForCooling,1
;   minSpeedLayerTime,15
;   minCoolingSpeedSlowdown,20
;   increaseFanForCooling,0
;   minFanLayerTime,45
;   maxCoolingFanSpeed,100
;   increaseFanForBridging,0
;   bridgingFanSpeed,100
;   use5D,1
;   relativeEdistances,0
;   allowEaxisZeroing,1
;   independentExtruderAxes,0
;   includeM10123,0
;   stickySupport,1
;   applyToolheadOffsets,0
;   gcodeXoffset,0
;   gcodeYoffset,0
;   gcodeZoffset,0
;   overrideMachineDefinition,1
;   machineTypeOverride,0
;   strokeXoverride,200
;   strokeYoverride,250
;   strokeZoverride,200
;   originOffsetXoverride,0
;   originOffsetYoverride,0
;   originOffsetZoverride,0
;   homeXdirOverride,-1
;   homeYdirOverride,-1
;   homeZdirOverride,-1
;   flipXoverride,1
;   flipYoverride,-1
;   flipZoverride,1
;   toolheadOffsets,0,0|0,0|0,0|0,0|0,0|0,0
;   overrideFirmwareConfiguration,1
;   firmwareTypeOverride,RepRap (Marlin/Repetier/Sprinter)
;   GPXconfigOverride,r2
;   baudRateOverride,115200
;   overridePrinterModels,1
;   printerModelsOverride,MakerGear_M2Single.stl
;   startingGcode,M108 S255 ; turn on M2 fans,G28 ; home all axes,G1 Y50 Z0.3 F9600 ; move forward to avoid binder clips,G1 X205 Z10 ; move off platform,G1 Z0.4 ; position nozzle,G92 E0 ; zero extruder,G1 E25 F225 ; purge nozzle,G92 E0 ; zero extruder,G1 X190 Z0.1 E1.0 F1200 ; slow wipe,G1 X180 Z0.25 ; lift
;   layerChangeGcode,
;   retractionGcode,
;   toolChangeGcode,
;   endingGcode,M104 S0 ; turn off extruder,M140 S0 ; turn off bed,G91 ; relative mode,G1 Z10 ; lift 10mm,G90 ; absolute mode,G28 X0 ; home X axis,M84 ; disable motors
;   createX3G,0
;   celebration,0
;   celebrationSong,Random Song
;   createMB5G,0
;   postProcessing,
;   defaultSpeed,7200
;   outlineUnderspeed,0.6
;   solidInfillUnderspeed,0.8
;   supportUnderspeed,0.8
;   rapidXYspeed,18000
;   rapidZspeed,1200
;   minBridgingArea,50
;   bridgingExtraInflation,0
;   bridgingExtrusionMultiplier,1
;   bridgingSpeedMultiplier,1
;   filamentDiameter,1.75
;   filamentPricePerKg,46
;   filamentDensity,1.25
;   useMinPrintHeight,0
;   minPrintHeight,0
;   useMaxPrintHeight,0
;   maxPrintHeight,0
;   useDiaphragm,0
;   diaphragmLayerInterval,20
;   robustSlicing,1
;   mergeAllIntoSolid,0
;   onlyRetractWhenCrossingOutline,1
;   retractBetweenLayers,1
;   useRetractionMinTravel,0
;   retractionMinTravel,3
;   retractWhileWiping,0
;   onlyWipeOutlines,1
;   avoidCrossingOutline,0
;   maxMovementDetourFactor,3
;   toolChangeRetractionDistance,12
;   toolChangeExtraRestartDistance,-0.5
;   toolChangeRetractionSpeed,600
;   allowThinWallGapFill,1
;   thinWallAllowedOverlapPercentage,10
;   horizontalSizeCompensation,0
G90
M82
M106 S0
M140 S85
M190 S85
M104 S215 T0
M109 S215 T0
M108 S255 ; turn on M2 fans
G28 ; home all axes
G1 Y50 Z0.3 F9600 ; move forward to avoid binder clips
G1 X205 Z10 ; move off platform
G1 Z0.4 ; position nozzle
G92 E0 ; zero extruder
G1 E25 F225 ; purge nozzle
G92 E0 ; zero extruder
G1 X190 Z0.1 E1.0 F1200 ; slow wipe
G1 X180 Z0.25 ; lift
G92 E0
G1 E-1.0000 F2400
G1 Z0.270 F1200
; layer 1, Z = 0.27
T0
; tool H0.300 W0.420
; inner perimeter
; inner perimeter
G1 X91.575 Y118.544 F18000
G1 E0.0000 F720
G92 E0
G1 X91.870 Y118.363 E0.0163 F1094
G1 X91.870 Y119.675 E0.0781
G1 X91.892 Y119.958 E0.0915
G1 X91.973 Y120.256 E0.1061
G1 X92.123 Y120.535 E0.1210
G1 X92.338 Y120.771 E0.1360
G1 X92.601 Y120.944 E0.1509
G1 X92.888 Y121.055 E0.1654
G1 X93.187 Y121.113 E0.1798
G1 X93.482 Y121.130 E0.1937
G1 X106.518 Y121.130 E0.8083
G1 X106.814 Y121.113 E0.8223
G1 X107.114 Y121.054 E0.8367
G1 X107.400 Y120.943 E0.8512
G1 X107.663 Y120.770 E0.8660
G1 X107.878 Y120.534 E0.8810
G1 X108.027 Y120.255 E0.8959
G1 X108.108 Y119.956 E0.9106
G1 X108.130 Y119.669 E0.9241
G1 X108.130 Y116.944 E1.0526
G1 X108.079 Y116.594 E1.0693
G1 X107.861 Y116.124 E1.0937
G1 X108.281 Y116.145 E1.1136
G1 X108.497 Y116.184 E1.1239
G1 X108.647 Y116.236 E1.1314
G1 X108.737 Y116.290 E1.1363
G1 X108.789 Y116.341 E1.1398
G1 X108.825 Y116.402 E1.1431
G1 X108.854 Y116.500 E1.1479
G1 X108.870 Y116.683 E1.1566
G1 X108.870 Y120.135 E1.3194
G1 X108.845 Y120.631 E1.3428
G1 X108.777 Y121.022 E1.3615
G1 X108.669 Y121.334 E1.3770
G1 X108.617 Y121.436 E1.3825
G1 X108.553 Y121.532 E1.3879
G1 X108.486 Y121.610 E1.3928
G1 X108.414 Y121.675 E1.3973
G1 X108.335 Y121.730 E1.4018
G1 X108.246 Y121.776 E1.4066
G1 X108.143 Y121.814 E1.4117
G1 X108.038 Y121.840 E1.4169
G1 X107.698 Y121.870 E1.4329
G1 X92.301 Y121.870 E2.1588
G1 X91.962 Y121.840 E2.1749
G1 X91.856 Y121.814 E2.1800
G1 X91.753 Y121.776 E2.1852
G1 X91.664 Y121.730 E2.1899
G1 X91.586 Y121.675 E2.1944
G1 X91.514 Y121.610 E2.1990
G1 X91.447 Y121.532 E2.2039
G1 X91.383 Y121.436 E2.2093
G1 X91.330 Y121.333 E2.2147
G1 X91.223 Y121.020 E2.2304
G1 X91.155 Y120.630 E2.2490
G1 X91.131 Y120.147 E2.2718
G1 X91.152 Y119.658 E2.2949
G1 X91.211 Y119.256 E2.3140
G1 X91.301 Y118.947 E2.3292
G1 X91.416 Y118.714 E2.3415
G1 X91.462 Y118.651 E2.3452
G1 X91.518 Y118.591 E2.3490
G1 X91.575 Y118.544 E2.3525
; outer perimeter
G1 X91.331 Y118.201 F18000
G92 E0
G1 X91.442 Y118.133 E0.0061 F895
G1 X91.562 Y118.080 E0.0123
G1 X91.689 Y118.044 E0.0186
G1 X92.014 Y118.010 E0.0339
G1 X93.290 Y118.010 E0.0941
G1 X93.290 Y118.590 E0.1214
G1 X92.290 Y118.590 E0.1686
G1 X92.290 Y119.659 E0.2190
G1 X92.308 Y119.886 E0.2297
G1 X92.366 Y120.100 E0.2402
G1 X92.468 Y120.291 E0.2504
G1 X92.613 Y120.449 E0.2605
G1 X92.794 Y120.568 E0.2707
G1 X93.004 Y120.649 E0.2813
G1 X93.240 Y120.696 E0.2927
G1 X93.494 Y120.710 E0.3047
G1 X106.506 Y120.710 E0.9181
G1 X106.761 Y120.695 E0.9302
G1 X106.996 Y120.649 E0.9415
G1 X107.207 Y120.568 E0.9521
G1 X107.388 Y120.448 E0.9623
G1 X107.532 Y120.290 E0.9724
G1 X107.634 Y120.099 E0.9826
G1 X107.692 Y119.885 E0.9931
G1 X107.710 Y119.653 E1.0041
G1 X107.710 Y116.975 E1.1303
G1 X107.672 Y116.715 E1.1427
G1 X107.610 Y116.580 E1.1497
G1 X107.523 Y116.471 E1.1563
G1 X107.412 Y116.387 E1.1628
G1 X107.274 Y116.325 E1.1700
G1 X106.872 Y116.282 E1.1890
G1 X106.789 Y116.260 E1.1931
G1 X106.753 Y116.240 E1.1950
G1 X106.747 Y116.233 E1.1955
G1 X106.718 Y116.148 E1.1997
G1 X106.718 Y115.851 E1.2137
G1 X106.747 Y115.767 E1.2179
G1 X106.753 Y115.760 E1.2184
G1 X106.789 Y115.740 E1.2203
G1 X106.869 Y115.719 E1.2242
G1 X107.009 Y115.710 E1.2308
G1 X107.995 Y115.710 E1.2773
G1 X108.328 Y115.727 E1.2930
G1 X108.603 Y115.776 E1.3062
G1 X108.825 Y115.853 E1.3173
G1 X108.996 Y115.955 E1.3266
G1 X109.122 Y116.080 E1.3350
G1 X109.213 Y116.232 E1.3434
G1 X109.269 Y116.420 E1.3526
G1 X109.290 Y116.666 E1.3642
G1 X109.290 Y120.146 E1.5283
G1 X109.263 Y120.678 E1.5534
G1 X109.185 Y121.126 E1.5749
G1 X109.057 Y121.500 E1.5935
G1 X108.979 Y121.650 E1.6015
G1 X108.888 Y121.786 E1.6092
G1 X108.787 Y121.904 E1.6165
G1 X108.676 Y122.005 E1.6236
G1 X108.552 Y122.090 E1.6307
G1 X108.416 Y122.161 E1.6379
G1 X108.267 Y122.216 E1.6454
G1 X108.106 Y122.256 E1.6532
G1 X107.716 Y122.290 E1.6717
G1 X92.283 Y122.290 E2.3993
G1 X91.893 Y122.255 E2.4178
G1 X91.733 Y122.216 E2.4255
G1 X91.583 Y122.161 E2.4331
G1 X91.447 Y122.090 E2.4403
G1 X91.324 Y122.005 E2.4473
G1 X91.212 Y121.903 E2.4545
G1 X91.111 Y121.785 E2.4618
G1 X91.021 Y121.649 E2.4695
G1 X90.943 Y121.499 E2.4775
G1 X90.815 Y121.125 E2.4961
G1 X90.737 Y120.676 E2.5176
G1 X90.710 Y120.148 E2.5425
G1 X90.733 Y119.618 E2.5675
G1 X90.799 Y119.167 E2.5890
G1 X90.908 Y118.794 E2.6073
G1 X91.056 Y118.496 E2.6230
G1 X91.137 Y118.383 E2.6296
G1 X91.230 Y118.284 E2.6360
G1 X91.331 Y118.201 E2.6421
; gap fill
G1 X91.506 Y119.833 F18000
G92 E0
G1 X91.519 Y119.820 E0.0009 F1492
G1 X91.535 Y120.020 E0.0104
G1 X91.616 Y120.317 E0.0249
G1 X91.506 Y120.426 E0.0322
G1 X91.515 Y120.590 E0.0399
G1 X91.574 Y120.930 E0.0562
G1 X91.580 Y120.947 E0.0570
G1 X91.810 Y120.717 E0.0724
G1 X91.826 Y120.746 E0.0739
G1 X92.088 Y121.032 E0.0923
G1 X91.769 Y121.352 E0.1136
G1 X91.774 Y121.358 E0.1139
G1 X91.811 Y121.392 E0.1163
G1 X91.851 Y121.420 E0.1186
G1 X91.900 Y121.445 E0.1212
G1 X91.963 Y121.468 E0.1244
G1 X92.021 Y121.483 E0.1272
G1 X92.215 Y121.500 E0.1364
G1 X92.444 Y121.271 E0.1517
G1 X92.787 Y121.403 E0.1690
G1 X92.886 Y121.422 E0.1738
G1 X92.800 Y121.509 E0.1795
G1 X93.394 Y121.509 E0.2075
G1 X93.415 Y121.488 E0.2089
G1 X93.472 Y121.491 E0.2116
G1 X94.005 Y121.491 E0.2368
G1 X93.988 Y121.509 E0.2379
G1 X94.582 Y121.509 E0.2659
G1 X94.599 Y121.491 E0.2671
G1 X95.193 Y121.491 E0.2951
G1 X95.176 Y121.509 E0.2963
G1 X95.770 Y121.509 E0.3243
G1 X95.787 Y121.491 E0.3254
G1 X96.381 Y121.491 E0.3534
G1 X96.364 Y121.509 E0.3546
G1 X96.958 Y121.509 E0.3826
G1 X96.975 Y121.491 E0.3838
G1 X97.569 Y121.491 E0.4118
G1 X97.552 Y121.509 E0.4130
G1 X98.146 Y121.509 E0.4410
G1 X98.163 Y121.491 E0.4421
G1 X98.757 Y121.491 E0.4701
G1 X98.740 Y121.509 E0.4713
G1 X99.333 Y121.509 E0.4993
G1 X99.351 Y121.491 E0.5005
G1 X99.945 Y121.491 E0.5285
G1 X99.927 Y121.509 E0.5297
G1 X100.521 Y121.509 E0.5577
G1 X100.539 Y121.491 E0.5588
G1 X101.133 Y121.491 E0.5868
G1 X101.115 Y121.509 E0.5880
G1 X101.709 Y121.509 E0.6160
G1 X101.727 Y121.491 E0.6172
G1 X102.321 Y121.491 E0.6452
G1 X102.303 Y121.509 E0.6464
G1 X102.897 Y121.509 E0.6744
G1 X102.915 Y121.491 E0.6755
G1 X103.509 Y121.491 E0.7035
G1 X103.491 Y121.509 E0.7047
G1 X104.085 Y121.509 E0.7327
G1 X104.103 Y121.491 E0.7339
G1 X104.697 Y121.491 E0.7619
G1 X104.679 Y121.509 E0.7631
G1 X105.273 Y121.509 E0.7911
G1 X105.291 Y121.491 E0.7923
G1 X105.885 Y121.491 E0.8203
G1 X105.867 Y121.509 E0.8214
G1 X106.461 Y121.509 E0.8494
G1 X106.479 Y121.491 E0.8506
G1 X106.529 Y121.491 E0.8530
G1 X106.859 Y121.472 E0.8686
G1 X107.148 Y121.416 E0.8825
G1 X107.055 Y121.509 E0.8887
G1 X107.649 Y121.509 E0.9167
G1 X108.468 Y120.690 E0.9713
G1 X108.485 Y120.591 E0.9760
G1 X108.509 Y120.126 E0.9980
G1 X108.509 Y120.055 E1.0013
G1 X108.436 Y120.128 E1.0062
G1 X108.466 Y120.018 E1.0116
G1 X108.491 Y119.683 E1.0274
G1 X108.491 Y119.479 E1.0370
G1 X108.509 Y119.461 E1.0382
G1 X108.509 Y118.867 E1.0662
G1 X108.491 Y118.885 E1.0674
G1 X108.491 Y118.291 E1.0954
G1 X108.509 Y118.273 E1.0966
G1 X108.509 Y117.679 E1.1246
G1 X108.491 Y117.697 E1.1258
G1 X108.491 Y117.103 E1.1538
G1 X108.509 Y117.085 E1.1549
G1 X108.509 Y116.699 E1.1732
G1 X108.498 Y116.568 E1.1794
G1 X108.498 Y116.568 E1.1794
G1 X108.493 Y116.565 E1.1796
G1 X108.450 Y116.550 E1.1818
G1 X108.439 Y116.561 E1.1825
G92 E0
G1 E-1.0000 F2400
; inner perimeter
; inner perimeter
G1 X107.861 Y128.124 F18000
G1 E0.0000 F2400
G92 E0
G1 X108.281 Y128.145 E0.0198 F1094
G1 X108.497 Y128.184 E0.0302
G1 X108.647 Y128.236 E0.0377
G1 X108.737 Y128.290 E0.0426
G1 X108.789 Y128.341 E0.0460
G1 X108.825 Y128.402 E0.0494
G1 X108.854 Y128.500 E0.0542
G1 X108.870 Y128.683 E0.0629
G1 X108.870 Y132.135 E0.2256
G1 X108.845 Y132.631 E0.2491
G1 X108.777 Y133.022 E0.2677
G1 X108.669 Y133.334 E0.2833
G1 X108.617 Y133.436 E0.2888
G1 X108.553 Y133.532 E0.2942
G1 X108.486 Y133.610 E0.2990
G1 X108.414 Y133.675 E0.3036
G1 X108.335 Y133.730 E0.3081
G1 X108.246 Y133.776 E0.3128
G1 X108.143 Y133.814 E0.3180
G1 X108.038 Y133.840 E0.3231
G1 X107.698 Y133.870 E0.3392
G1 X92.301 Y133.870 E1.0651
G1 X91.962 Y133.840 E1.0812
G1 X91.856 Y133.814 E1.0863
G1 X91.753 Y133.776 E1.0915
G1 X91.664 Y133.730 E1.0962
G1 X91.586 Y133.675 E1.1007
G1 X91.514 Y133.610 E1.1053
G1 X91.447 Y133.532 E1.1102
G1 X91.383 Y133.436 E1.1156
G1 X91.330 Y133.333 E1.1210
G1 X91.223 Y133.020 E1.1366
G1 X91.155 Y132.630 E1.1553
G1 X91.131 Y132.147 E1.1781
G1 X91.152 Y131.658 E1.2012
G1 X91.211 Y131.256 E1.2203
G1 X91.301 Y130.947 E1.2355
G1 X91.416 Y130.714 E1.2477
G1 X91.462 Y130.651 E1.2514
G1 X91.518 Y130.591 E1.2553
G1 X91.575 Y130.544 E1.2588
G1 X91.870 Y130.363 E1.2751
G1 X91.870 Y131.675 E1.3369
G1 X91.892 Y131.958 E1.3503
G1 X91.973 Y132.256 E1.3649
G1 X92.123 Y132.535 E1.3798
G1 X92.338 Y132.771 E1.3949
G1 X92.601 Y132.944 E1.4097
G1 X92.888 Y133.055 E1.4242
G1 X93.187 Y133.113 E1.4386
G1 X93.482 Y133.130 E1.4525
G1 X106.518 Y133.130 E2.0671
G1 X106.814 Y133.113 E2.0811
G1 X107.114 Y133.054 E2.0955
G1 X107.400 Y132.943 E2.1100
G1 X107.663 Y132.770 E2.1248
G1 X107.878 Y132.534 E2.1398
G1 X108.027 Y132.255 E2.1547
G1 X108.108 Y131.956 E2.1694
G1 X108.130 Y131.669 E2.1829
G1 X108.130 Y128.944 E2.3114
G1 X108.079 Y128.594 E2.3281
G1 X107.861 Y128.124 E2.3525
; outer perimeter
G1 X107.995 Y127.710 F18000
G92 E0
G1 X108.328 Y127.727 E0.0157 F895
G1 X108.603 Y127.776 E0.0289
G1 X108.825 Y127.853 E0.0400
G1 X108.996 Y127.955 E0.0493
G1 X109.122 Y128.080 E0.0577
G1 X109.213 Y128.232 E0.0661
G1 X109.269 Y128.420 E0.0753
G1 X109.290 Y128.666 E0.0869
G1 X109.290 Y132.146 E0.2510
G1 X109.263 Y132.678 E0.2761
G1 X109.185 Y133.126 E0.2976
G1 X109.057 Y133.500 E0.3162
G1 X108.979 Y133.650 E0.3242
G1 X108.888 Y133.786 E0.3319
G1 X108.787 Y133.904 E0.3392
G1 X108.676 Y134.005 E0.3463
G1 X108.552 Y134.090 E0.3534
G1 X108.416 Y134.161 E0.3606
G1 X108.267 Y134.216 E0.3681
G1 X108.106 Y134.256 E0.3759
G1 X107.716 Y134.290 E0.3944
G1 X92.283 Y134.290 E1.1220
G1 X91.893 Y134.255 E1.1405
G1 X91.733 Y134.216 E1.1482
G1 X91.583 Y134.161 E1.1558
G1 X91.447 Y134.090 E1.1630
G1 X91.324 Y134.005 E1.1700
G1 X91.212 Y133.903 E1.1772
G1 X91.111 Y133.785 E1.1845
G1 X91.021 Y133.649 E1.1922
G1 X90.943 Y133.499 E1.2002
G1 X90.815 Y133.125 E1.2188
G1 X90.737 Y132.676 E1.2403
G1 X90.710 Y132.148 E1.2652
