; generated by Slic3r 1.2.9 on 2016-06-05 at 18:21:21

; external perimeters extrusion width = 0.50mm
; perimeters extrusion width = 0.72mm
; infill extrusion width = 0.72mm
; solid infill extrusion width = 0.72mm
; top infill extrusion width = 0.72mm

M107
G28 ; home all axes
G1 Z5 F5000 ; lift nozzle

M109 S200 ; wait for temperature to be reached
G21 ; set units to millimeters
G90 ; use absolute coordinates
M82 ; use absolute distances for extrusion
G92 E0
G1 Z0.350 F7800.000
G1 E-2.00000 F2400.00000
G92 E0
G1 X78.998 Y93.609 F7800.000
G1 E2.00000 F2400.00000
G1 X79.158 Y93.474 E2.00649 F1800.000
G1 X81.310 Y92.681 E2.07746
G1 X82.490 Y92.575 E2.11411
G1 X117.510 Y92.575 E3.19767
G1 X119.769 Y92.972 E3.26863
G1 X121.757 Y94.115 E3.33960 F1800.000
G1 X123.236 Y95.868 E3.41056
G1 X124.029 Y98.020 E3.48152
G1 X124.135 Y99.200 E3.51817
G1 X124.135 Y100.800 E3.56768
G1 X123.738 Y103.059 E3.63864
G1 X122.595 Y105.047 E3.70960
G1 X120.842 Y106.526 E3.78057
G1 X118.690 Y107.319 E3.85153
G1 X117.510 Y107.425 E3.88818
G1 X82.490 Y107.425 E4.97174
G1 X80.231 Y107.028 E5.04271
G1 X78.243 Y105.885 E5.11367
G1 X76.764 Y104.132 E5.18463
G1 X75.971 Y101.980 E5.25559
G1 X75.865 Y100.800 E5.29224
G1 X75.865 Y99.200 E5.34175
G1 X76.262 Y96.941 E5.41271
G1 X77.405 Y94.953 E5.48367
G1 X78.940 Y93.658 E5.54582
G1 E3.54582 F2400.00000
G92 E0
G1 X117.160 Y100.450 F7800.000
G1 E2.00000 F2400.00000
G1 X82.840 Y100.450 E3.06191 F1800.000
G1 X82.840 Y99.550 E3.08975
G1 X117.160 Y99.550 E4.15166
G1 X117.160 Y100.375 E4.17719
G1 X116.727 Y100.200 F7800.000
G1 X116.848 Y100.000 F7800.000
G1 X83.152 Y100.000 E5.21976 F1800.000
G1 Z0.650 F7800.000
G1 E3.21976 F2400.00000
G92 E0
G1 X117.260 Y100.550 F7800.000
G1 E2.00000 F2400.00000
G1 X82.740 Y100.550 E2.63821 F1465.529
G1 X82.740 Y99.450 E2.65855
G1 X117.260 Y99.450 E3.29677
G1 X117.260 Y100.475 E3.31572
G1 X116.827 Y100.300 F7800.000
G1 X116.987 Y100.000 F7800.000
G1 X83.013 Y100.000 E5.29604 F977.019
G1 Z0.950 F7800.000
G1 E3.29604 F2400.00000
G92 E0
G1 X115.804 Y100.550 F7800.000
G1 E2.00000 F2400.00000
G1 X114.676 Y100.550 E2.02084 F702.431
G1 X114.676 Y99.450 E2.04118
G1 X115.804 Y99.450 E2.06202
G1 X115.804 Y100.475 E2.08097
G1 X115.371 Y100.300 F7800.000
G1 E0.08097 F2400.00000
G92 E0
G1 X113.264 Y100.550 F7800.000
G1 E2.00000 F2400.00000
G1 X112.136 Y100.550 E2.02084 F702.431
G1 X112.136 Y99.450 E2.04118
G1 X113.264 Y99.450 E2.06202
G1 X113.264 Y100.475 E2.08097
G1 X112.831 Y100.300 F7800.000
G1 E0.08097 F2400.00000
G92 E0
G1 X110.724 Y100.550 F7800.000
G1 E2.00000 F2400.00000
G1 X109.596 Y100.550 E2.02084 F702.431
G1 X109.596 Y99.450 E2.04118
G1 X110.724 Y99.450 E2.06202
G1 X110.724 Y100.475 E2.08097
G1 X110.291 Y100.300 F7800.000
G1 E0.08097 F2400.00000
G92 E0
G1 X108.184 Y100.550 F7800.000
G1 E2.00000 F2400.00000
G1 X107.056 Y100.550 E2.02084 F702.431
G1 X107.056 Y99.450 E2.04118
G1 X108.184 Y99.450 E2.06202
G1 X108.184 Y100.475 E2.08097
G1 X107.751 Y100.300 F7800.000
G1 E0.08097 F2400.00000
G92 E0
G1 X105.644 Y100.550 F7800.000
G1 E2.00000 F2400.00000
G1 X104.516 Y100.550 E2.02084 F702.431
G1 X104.516 Y99.450 E2.04118
G1 X105.644 Y99.450 E2.06202
G1 X105.644 Y100.475 E2.08097
G1 X105.211 Y100.300 F7800.000
G1 E0.08097 F2400.00000
G92 E0
G1 X103.104 Y100.550 F7800.000
G1 E2.00000 F2400.00000
G1 X101.976 Y100.550 E2.02084 F702.431
G1 X101.976 Y99.450 E2.04118
G1 X103.104 Y99.450 E2.06202
G1 X103.104 Y100.475 E2.08097
G1 X102.671 Y100.300 F7800.000
G1 E0.08097 F2400.00000
G92 E0
G1 X100.564 Y100.550 F7800.000
G1 E2.00000 F2400.00000
G1 X99.436 Y100.550 E2.02084 F702.431
G1 X99.436 Y99.450 E2.04118
G1 X100.564 Y99.450 E2.06202
G1 X100.564 Y100.475 E2.08097
G1 X100.131 Y100.300 F7800.000
G1 E0.08097 F2400.00000
G92 E0
G1 X98.024 Y100.550 F7800.000
G1 E2.00000 F2400.00000
G1 X96.896 Y100.550 E2.02084 F702.431
G1 X96.896 Y99.450 E2.04118
G1 X98.024 Y99.450 E2.06202
G1 X98.024 Y100.475 E2.08097
G1 X97.591 Y100.300 F7800.000
G1 E0.08097 F2400.00000
G92 E0
G1 X95.484 Y100.550 F7800.000
G1 E2.00000 F2400.00000
G1 X94.356 Y100.550 E2.02084 F702.431
G1 X94.356 Y99.450 E2.04118
G1 X95.484 Y99.450 E2.06202
G1 X95.484 Y100.475 E2.08097
G1 X95.051 Y100.300 F7800.000
G1 E0.08097 F2400.00000
G92 E0
G1 X92.944 Y100.550 F7800.000
G1 E2.00000 F2400.00000
G1 X91.816 Y100.550 E2.02084 F702.431
G1 X91.816 Y99.450 E2.04118
G1 X92.944 Y99.450 E2.06202
G1 X92.944 Y100.475 E2.08097
G1 X92.511 Y100.300 F7800.000
G1 E0.08097 F2400.00000
G92 E0
G1 X90.404 Y100.550 F7800.000
G1 E2.00000 F2400.00000
G1 X89.276 Y100.550 E2.02084 F702.431
G1 X89.276 Y99.450 E2.04118
G1 X90.404 Y99.450 E2.06202
G1 X90.404 Y100.475 E2.08097
G1 X89.971 Y100.300 F7800.000
G1 E0.08097 F2400.00000
G92 E0
G1 X87.864 Y100.550 F7800.000
G1 E2.00000 F2400.00000
G1 X86.736 Y100.550 E2.02084 F702.431
G1 X86.736 Y99.450 E2.04118
G1 X87.864 Y99.450 E2.06202
G1 X87.864 Y100.475 E2.08097
G1 X87.431 Y100.300 F7800.000
G1 E0.08097 F2400.00000
G92 E0
G1 X85.324 Y100.550 F7800.000
G1 E2.00000 F2400.00000
G1 X84.196 Y100.550 E2.02084 F702.431
G1 X84.196 Y99.450 E2.04118
G1 X85.324 Y99.450 E2.06202
G1 X85.324 Y100.475 E2.08097
G1 X84.891 Y100.300 F7800.000
G1 E0.08097 F2400.00000
G92 E0
G1 X117.238 Y100.800 F7800.000
G1 E2.00000 F2400.00000
G1 X117.238 Y99.200 E2.04444 F1404.863
G1 E0.04444 F2400.00000
G92 E0
G1 X82.762 Y100.800 F7800.000
G1 E2.00000 F2400.00000
G1 X82.762 Y99.200 E2.04444 F1404.863
M106 S255
G1 Z1.250 F7800.000
G1 E0.04444 F2400.00000
G92 E0
G1 X114.709 Y100.550 F7800.000
G1 E2.00000 F2400.00000
G1 X114.709 Y99.450 E2.02034 F682.123
G1 X115.771 Y99.450 E2.03998
G1 X115.771 Y100.550 E2.06031
G1 X114.784 Y100.550 E2.07857
G1 X114.959 Y100.117 F7800.000
G1 X113.231 Y100.550 F7800.000
G1 X112.169 Y100.550 E2.09821 F682.123
G1 X112.169 Y99.450 E2.11854
G1 X113.231 Y99.450 E2.13818
G1 X113.231 Y100.475 E2.15713
G1 X112.798 Y100.300 F7800.000
G1 E0.15713 F2400.00000
G92 E0
G1 X110.691 Y100.550 F7800.000
G1 E2.00000 F2400.00000
G1 X109.629 Y100.550 E2.01964 F682.123
G1 X109.629 Y99.450 E2.03998
G1 X110.691 Y99.450 E2.05962
G1 X110.691 Y100.475 E2.07857
G1 X110.258 Y100.300 F7800.000
G1 E0.07857 F2400.00000
G92 E0
G1 X108.151 Y100.550 F7800.000
G1 E2.00000 F2400.00000
G1 X107.089 Y100.550 E2.01964 F682.123
G1 X107.089 Y99.450 E2.03998
G1 X108.151 Y99.450 E2.05962
G1 X108.151 Y100.475 E2.07857
G1 X107.718 Y100.300 F7800.000
G1 E0.07857 F2400.00000
G92 E0
G1 X105.611 Y100.550 F7800.000
G1 E2.00000 F2400.00000
G1 X104.549 Y100.550 E2.01964 F682.123
G1 X104.549 Y99.450 E2.03998
G1 X105.611 Y99.450 E2.05962
G1 X105.611 Y100.475 E2.07857
G1 X105.178 Y100.300 F7800.000
G1 E0.07857 F2400.00000
G92 E0
G1 X103.071 Y100.550 F7800.000
G1 E2.00000 F2400.00000
G1 X102.009 Y100.550 E2.01964 F682.123
G1 X102.009 Y99.450 E2.03998
G1 X103.071 Y99.450 E2.05962
G1 X103.071 Y100.475 E2.07857
G1 X102.638 Y100.300 F7800.000
G1 E0.07857 F2400.00000
G92 E0
G1 X100.531 Y100.550 F7800.000
G1 E2.00000 F2400.00000
G1 X99.469 Y100.550 E2.01964 F682.123
G1 X99.469 Y99.450 E2.03998
G1 X100.531 Y99.450 E2.05962
G1 X100.531 Y100.475 E2.07857
G1 X100.098 Y100.300 F7800.000
G1 E0.07857 F2400.00000
G92 E0
G1 X97.991 Y100.550 F7800.000
G1 E2.00000 F2400.00000
G1 X96.929 Y100.550 E2.01964 F682.123
G1 X96.929 Y99.450 E2.03998
G1 X97.991 Y99.450 E2.05962
G1 X97.991 Y100.475 E2.07857
G1 X97.558 Y100.300 F7800.000
G1 E0.07857 F2400.00000
G92 E0
G1 X95.451 Y100.550 F7800.000
G1 E2.00000 F2400.00000
G1 X94.389 Y100.550 E2.01964 F682.123
G1 X94.389 Y99.450 E2.03998
G1 X95.451 Y99.450 E2.05962
G1 X95.451 Y100.475 E2.07857
G1 X95.018 Y100.300 F7800.000
G1 E0.07857 F2400.00000
G92 E0
G1 X92.911 Y100.550 F7800.000
G1 E2.00000 F2400.00000
G1 X91.849 Y100.550 E2.01964 F682.123
G1 X91.849 Y99.450 E2.03998
G1 X92.911 Y99.450 E2.05962
G1 X92.911 Y100.475 E2.07857
G1 X92.478 Y100.300 F7800.000
G1 E0.07857 F2400.00000
G92 E0
G1 X90.371 Y100.550 F7800.000
G1 E2.00000 F2400.00000
G1 X89.309 Y100.550 E2.01964 F682.123
G1 X89.309 Y99.450 E2.03998
G1 X90.371 Y99.450 E2.05962
G1 X90.371 Y100.475 E2.07857
G1 X89.938 Y100.300 F7800.000
G1 E0.07857 F2400.00000
G92 E0
G1 X87.831 Y100.550 F7800.000
G1 E2.00000 F2400.00000
G1 X86.769 Y100.550 E2.01964 F682.123
G1 X86.769 Y99.450 E2.03998
G1 X87.831 Y99.450 E2.05962
G1 X87.831 Y100.475 E2.07857
G1 X87.398 Y100.300 F7800.000
G1 E0.07857 F2400.00000
G92 E0
G1 X85.291 Y100.550 F7800.000
G1 E2.00000 F2400.00000
G1 X84.229 Y100.550 E2.01964 F682.123
G1 X84.229 Y99.450 E2.03998
G1 X85.291 Y99.450 E2.05962
G1 X85.291 Y100.475 E2.07857
G1 X84.858 Y100.300 F7800.000
G1 E0.07857 F2400.00000
G92 E0
G1 X117.254 Y100.800 F7800.000
G1 E2.00000 F2400.00000
G1 X117.254 Y99.200 E2.04444 F1364.246
G1 E0.04444 F2400.00000
G92 E0
G1 X82.746 Y100.800 F7800.000
G1 E2.00000 F2400.00000
G1 X82.746 Y99.200 E2.04444 F1364.246
G1 Z1.550 F7800.000
G1 E0.04444 F2400.00000
G92 E0
G1 X94.197 Y100.550 F7800.000
G1 E2.00000 F2400.00000
G1 X94.197 Y99.450 E2.02034 F801.760
G1 X95.643 Y99.450 E2.04707
G1 X95.643 Y100.550 E2.06740
G1 X94.272 Y100.550 E2.09274
G1 X94.447 Y100.117 F7800.000
G1 E0.09274 F2400.00000
G92 E0
G1 X96.737 Y100.550 F7800.000
G1 E2.00000 F2400.00000
G1 X96.737 Y99.450 E2.02034 F801.760
G1 X98.183 Y99.450 E2.04707
G1 X98.183 Y100.550 E2.06740
G1 X96.812 Y100.550 E2.09274
G1 X96.987 Y100.117 F7800.000
G1 E0.09274 F2400.00000
G92 E0
G1 X99.277 Y100.550 F7800.000
G1 E2.00000 F2400.00000
G1 X99.277 Y99.450 E2.02034 F801.760
G1 X100.723 Y99.450 E2.04707
G1 X100.723 Y100.550 E2.06740
G1 X99.352 Y100.550 E2.09274
G1 X99.527 Y100.117 F7800.000
G1 E0.09274 F2400.00000
G92 E0
G1 X101.817 Y100.550 F7800.000
G1 E2.00000 F2400.00000
G1 X101.817 Y99.450 E2.02034 F801.760
G1 X103.263 Y99.450 E2.04707
G1 X103.263 Y100.550 E2.06740
G1 X101.892 Y100.550 E2.09274
G1 X102.067 Y100.117 F7800.000
G1 E0.09274 F2400.00000
G92 E0
G1 X104.357 Y100.550 F7800.000
G1 E2.00000 F2400.00000
G1 X104.357 Y99.450 E2.02034 F801.760
G1 X105.803 Y99.450 E2.04707
G1 X105.803 Y100.550 E2.06740
G1 X104.432 Y100.550 E2.09274
G1 X104.607 Y100.117 F7800.000
G1 E0.09274 F2400.00000
G92 E0
G1 X106.897 Y100.550 F7800.000
G1 E2.00000 F2400.00000
G1 X106.897 Y99.450 E2.02034 F801.760
G1 X108.343 Y99.450 E2.04707
G1 X108.343 Y100.550 E2.06740
G1 X106.972 Y100.550 E2.09274
G1 X107.147 Y100.117 F7800.000
G1 E0.09274 F2400.00000
G92 E0
G1 X109.437 Y100.550 F7800.000
G1 E2.00000 F2400.00000
G1 X109.437 Y99.450 E2.02034 F801.760
G1 X110.883 Y99.450 E2.04707
G1 X110.883 Y100.550 E2.06740
G1 X109.512 Y100.550 E2.09274
G1 X109.687 Y100.117 F7800.000
G1 E0.09274 F2400.00000
G92 E0
G1 X111.977 Y100.550 F7800.000
G1 E2.00000 F2400.00000
G1 X111.977 Y99.450 E2.02034 F801.760
G1 X113.423 Y99.450 E2.04707
G1 X113.423 Y100.550 E2.06740
G1 X112.052 Y100.550 E2.09274
G1 X112.227 Y100.117 F7800.000
G1 E0.09274 F2400.00000
G92 E0
G1 X114.517 Y100.550 F7800.000
G1 E2.00000 F2400.00000
G1 X114.517 Y99.450 E2.02034 F801.760
G1 X115.963 Y99.450 E2.04707
G1 X115.963 Y100.550 E2.06740
G1 X114.592 Y100.550 E2.09274
G1 X114.767 Y100.117 F7800.000
G1 E0.09274 F2400.00000
G92 E0
G1 X93.103 Y100.550 F7800.000
G1 E2.00000 F2400.00000
G1 X91.657 Y100.550 E2.02673 F801.760
G1 X91.657 Y99.450 E2.04707
G1 X93.103 Y99.450 E2.07379
G1 X93.103 Y100.475 E2.09274
G1 X92.670 Y100.300 F7800.000
G1 E0.09274 F2400.00000
G92 E0
G1 X90.563 Y100.550 F7800.000
G1 E2.00000 F2400.00000
G1 X89.117 Y100.550 E2.02673 F801.760
G1 X89.117 Y99.450 E2.04707
G1 X90.563 Y99.450 E2.07379
G1 X90.563 Y100.475 E2.09274
G1 X90.130 Y100.300 F7800.000
G1 E0.09274 F2400.00000
G92 E0
G1 X88.023 Y100.550 F7800.000
G1 E2.00000 F2400.00000
G1 X86.577 Y100.550 E2.02673 F801.760
G1 X86.577 Y99.450 E2.04707
G1 X88.023 Y99.450 E2.07379
G1 X88.023 Y100.475 E2.09274
G1 X87.590 Y100.300 F7800.000
G1 E0.09274 F2400.00000
G92 E0
G1 X85.483 Y100.550 F7800.000
G1 E2.00000 F2400.00000
G1 X84.037 Y100.550 E2.02673 F801.760
G1 X84.037 Y99.450 E2.04707
G1 X85.483 Y99.450 E2.07379
G1 X85.483 Y100.475 E2.09274
G1 X85.050 Y100.300 F7800.000
G1 E0.09274 F2400.00000
G92 E0
G1 X117.159 Y100.800 F7800.000
G1 E2.00000 F2400.00000
G1 X117.159 Y99.200 E2.04444 F1603.520
G1 E0.04444 F2400.00000
G92 E0
G1 X82.841 Y100.800 F7800.000
G1 E2.00000 F2400.00000
G1 X82.841 Y99.200 E2.04444 F1603.520
G1 Z1.850 F7800.000
G1 X82.740 Y100.550 F7800.000
G1 X82.740 Y99.450 E2.06478 F1449.688
G1 X83.443 Y99.450 E2.07778
M106 S255
G1 X83.537 Y99.450 E2.08040 F3600.000
M106 S255
G1 X85.983 Y99.450 E2.12561 F1449.688
M106 S255
G1 X86.077 Y99.450 E2.12823 F3600.000
M106 S255
G1 X88.523 Y99.450 E2.17345 F1449.688
M106 S255
G1 X88.617 Y99.450 E2.17607 F3600.000
M106 S255
G1 X91.063 Y99.450 E2.22128 F1449.688
M106 S255
G1 X91.157 Y99.450 E2.22390 F3600.000
M106 S255
G1 X93.603 Y99.450 E2.26912 F1449.688
M106 S255
G1 X93.697 Y99.450 E2.27174 F3600.000
M106 S255
G1 X96.143 Y99.450 E2.31696 F1449.688
M106 S255
G1 X96.237 Y99.450 E2.31958 F3600.000
M106 S255
G1 X98.683 Y99.450 E2.36479 F1449.688
M106 S255
G1 X98.777 Y99.450 E2.36741 F3600.000
M106 S255
G1 X101.223 Y99.450 E2.41263 F1449.688
M106 S255
G1 X101.317 Y99.450 E2.41525 F3600.000
M106 S255
G1 X103.763 Y99.450 E2.46047 F1449.688
M106 S255
G1 X103.857 Y99.450 E2.46308 F3600.000
M106 S255
G1 X106.303 Y99.450 E2.50830 F1449.688
M106 S255
G1 X106.397 Y99.450 E2.51092 F3600.000
M106 S255
G1 X108.843 Y99.450 E2.55614 F1449.688
M106 S255
G1 X108.937 Y99.450 E2.55876 F3600.000
M106 S255
G1 X111.383 Y99.450 E2.60397 F1449.688
M106 S255
G1 X111.477 Y99.450 E2.60659 F3600.000
M106 S255
G1 X113.923 Y99.450 E2.65181 F1449.688
M106 S255
G1 X114.017 Y99.450 E2.65443 F3600.000
M106 S255
G1 X116.463 Y99.450 E2.69965 F1449.688
M106 S255
G1 X116.557 Y99.450 E2.70227 F3600.000
M106 S255
G1 X117.260 Y99.450 E2.71526 F1449.688
G1 X117.260 Y100.550 E2.73560
G1 X116.557 Y100.550 E2.74859
M106 S255
G1 X116.463 Y100.550 E2.75121 F3600.000
M106 S255
G1 X114.017 Y100.550 E2.79643 F1449.688
M106 S255
G1 X113.923 Y100.550 E2.79905 F3600.000
M106 S255
G1 X111.477 Y100.550 E2.84426 F1449.688
M106 S255
G1 X111.383 Y100.550 E2.84688 F3600.000
M106 S255
G1 X108.937 Y100.550 E2.89210 F1449.688
M106 S255
G1 X108.843 Y100.550 E2.89472 F3600.000
M106 S255
G1 X106.397 Y100.550 E2.93994 F1449.688
M106 S255
G1 X106.303 Y100.550 E2.94256 F3600.000
M106 S255
G1 X103.857 Y100.550 E2.98777 F1449.688
M106 S255
G1 X103.763 Y100.550 E2.99039 F3600.000
M106 S255
G1 X101.317 Y100.550 E3.03561 F1449.688
M106 S255
G1 X101.223 Y100.550 E3.03823 F3600.000
M106 S255
G1 X98.777 Y100.550 E3.08344 F1449.688
M106 S255
G1 X98.683 Y100.550 E3.08606 F3600.000
M106 S255
G1 X96.237 Y100.550 E3.13128 F1449.688
M106 S255
G1 X96.143 Y100.550 E3.13390 F3600.000
M106 S255
G1 X93.697 Y100.550 E3.17912 F1449.688
M106 S255
G1 X93.603 Y100.550 E3.18174 F3600.000
M106 S255
G1 X91.157 Y100.550 E3.22695 F1449.688
M106 S255
G1 X91.063 Y100.550 E3.22957 F3600.000
M106 S255
G1 X88.617 Y100.550 E3.27479 F1449.688
M106 S255
G1 X88.523 Y100.550 E3.27741 F3600.000
M106 S255
G1 X86.077 Y100.550 E3.32262 F1449.688
M106 S255
G1 X85.983 Y100.550 E3.32524 F3600.000
M106 S255
G1 X83.537 Y100.550 E3.37046 F1449.688
M106 S255
G1 X83.443 Y100.550 E3.37308 F3600.000
M106 S255
G1 X82.815 Y100.550 E3.38469 F1449.688
G1 X82.990 Y100.117 F7800.000
G1 X83.013 Y100.000 F7800.000
G1 X116.987 Y100.000 E5.36502 F966.458
G1 Z2.150 F7800.000
G1 X82.740 Y100.550 F7800.000
G1 X82.740 Y99.450 E5.38535 F1465.529
G1 X117.260 Y99.450 E6.02357
G1 X117.260 Y100.550 E6.04390
G1 X82.815 Y100.550 E6.68073
G1 X82.990 Y100.117 F7800.000
G1 X83.013 Y100.000 F7800.000
G1 X116.987 Y100.000 E8.66106 F977.019
G1 Z2.450 F7800.000
G1 X82.740 Y100.550 F7800.000
G1 X82.740 Y99.450 E8.68140 F1465.529
G1 X117.260 Y99.450 E9.31961
G1 X117.260 Y100.550 E9.33995
G1 X82.815 Y100.550 E9.97678
G1 X82.990 Y100.117 F7800.000
G1 X83.013 Y100.000 F7800.000
G1 X116.987 Y100.000 E11.95710 F977.019
G1 Z2.750 F7800.000
G1 X82.740 Y100.550 F7800.000
G1 X82.740 Y99.450 E11.97744 F1465.529
G1 X117.260 Y99.450 E12.61566
G1 X117.260 Y100.550 E12.63599
G1 X82.815 Y100.550 E13.27282
G1 X82.990 Y100.117 F7800.000
G1 X83.013 Y100.000 F7800.000
G1 X116.987 Y100.000 E15.25315 F977.019
G1 Z3.050 F7800.000
